X:1
T:Ford Cottage, 86.86.86
T:Ford Cottage, 86.86.86
T:Frederick Charles Maker (1844-1927)
T:Public Domain Courtesy of the Cyber Hymnal™
C:Frederick Charles Maker (1844-1927)
Z:Public Domain
Z:Courtesy of the Cyber Hymnal™
%%score ( 1 2 ) ( 3 4 )
L:1/8
Q:1/4=115
M:4/4
K:C
V:1 treble 
V:2 treble 
V:3 bass 
V:4 bass 
V:1
 C2 | E3 G c2 C2 | [CD]2 (EF) [CE]2 [CG]2 | [CA]3 [CG] [B,F]2 [CE]2 | [B,D]6 [B,D]2 | %5
 [CE]3 [CE] [D^F]2 [DF]2 | [DG]2 (AB) [Dc]2 [DA]2 | [Dd]2 [EG]2 [EA]2 (G^F) | [DG]6 [EG]2 | %9
 [B,F]3 [CE] [B,D]2 [B,A]2 | [CG]3 [B,F] [CE]2 G2 | (AB) (cd) [Ge]2 [=Fd]2 | [Ec]6 |] %13
V:2
 C2 | E3 G c2 C2 | x2 B,2 x4 | x8 | x8 | x8 | x2 D2 x4 | x6 E2 | x8 | x8 | x6 G2 | G2 ^F2 x4 | %12
 x6 |] %13
V:3
 C,2 | E,3 G, C2 C,2 | [F,A,]2 G,2 [C,G,]2 [E,C]2 | F,3 [E,G,] [D,G,]2 [C,G,]2 | %4
 [G,,G,]6 [G,,G,]2 | [C,G,]3 [C,G,] [C,A,]2 [C,A,]2 | %6
 [B,,G,]2 ([A,,^F,][G,,G,]) [^F,,A,]2 [C,F,]2 | [B,,G,]2 [E,B,]2 [C,A,]2 (B,C) | [G,,B,]6 [C,G,]2 | %9
 [D,G,]3 [E,G,] [F,G,]2 [F,G,]2 | [E,G,]3 [D,G,] [C,G,]2 [E,C]2 | [F,C]2 [A,C]2 [G,C]2 [G,B,]2 | %12
 [C,C]6 |] %13
V:4
 C,2 | E,3 G, C2 C,2 | x2 G,2 x4 | F,3 x5 | x8 | x8 | x8 | x6 D,2 | x8 | x8 | x8 | x8 | x6 |] %13

